;FLAVOR:Marlin
;TIME:1056
;Filament used: 1.56927m
;Layer height: 0.3
;MINX:90.842
;MINY:90.837
;MINZ:0.3
;MAXX:119.158
;MAXY:119.163
;MAXZ:15.9
;Generated with Cura_SteamEngine 4.3.0
M140 S60
M105
M190 S60
M104 S200
M105
M109 S200
M82 ;absolute extrusion mode
G21 ;metric values
G90 ;absolute positioning
M82 ;set extruder to absolute mode
M107 ;start with the fan off
G28 X0 Y0 ;move X/Y to min endstops
G28 Z0 ;move Z to min endstops
G1 Z15.0 F100 ;move the platform down 15mm
G92 E0 ;zero the extruded length
G1 F200 E3 ;extrude 3mm of feed stock
G92 E0 ;zero the extruded length again
G1 F100
M117 Printing...
G5
G92 E0
G92 E0
G1 F2400 E-6
;LAYER_COUNT:53
;LAYER:0
M106 S255
M204 S3000
M205 X10 Y10
G1 F600 Z0.375
G0 F3000 X95.027 Y94.945 Z0.375
M204 S1800
M205 X8 Y8
;TYPE:SKIRT
G1 F600 Z0.3
G1 F2400 E0
G1 X95.482 Y94.514 E0.04377
G1 X95.762 Y94.262 E0.07009
G1 X95.981 Y94.076 E0.09015
G1 X96.278 Y93.838 E0.11674
G1 X96.602 Y93.592 E0.14515
G1 X96.979 Y93.325 E0.17742
G1 X97.402 Y93.046 E0.21281
G1 X97.828 Y92.787 E0.24763
G1 X98.22 Y92.567 E0.27903
G1 X98.616 Y92.361 E0.31021
G1 X99.208 Y92.077 E0.35607
G1 X99.765 Y91.838 E0.3984
G1 X100.166 Y91.687 E0.42833
G1 X100.385 Y91.609 E0.44457
G1 X100.627 Y91.527 E0.46242
G1 X101.026 Y91.405 E0.49156
G1 X101.531 Y91.267 E0.52812
G1 X102.058 Y91.145 E0.56591
G1 X102.612 Y91.039 E0.6053
G1 X103.043 Y90.971 E0.63578
G1 X103.287 Y90.94 E0.65296
G1 X103.51 Y90.915 E0.66863
G1 X103.87 Y90.881 E0.69389
G1 X104.3 Y90.854 E0.72398
G1 X104.828 Y90.837 E0.76088
G1 X105.3 Y90.837 E0.79385
G1 X105.58 Y90.847 E0.81342
G1 X105.779 Y90.857 E0.82733
G1 X106.074 Y90.876 E0.84798
G1 X106.48 Y90.914 E0.87646
G1 X106.901 Y90.966 E0.90609
G1 X107.102 Y90.994 E0.92027
G1 X107.35 Y91.032 E0.93779
G1 X107.635 Y91.082 E0.958
G1 X107.834 Y91.121 E0.97216
G1 X108.102 Y91.179 E0.99132
G1 X108.456 Y91.263 E1.01673
G1 X108.761 Y91.343 E1.03875
G1 X109.013 Y91.415 E1.05706
G1 X109.236 Y91.482 E1.07332
G1 X109.506 Y91.569 E1.09313
G1 X109.909 Y91.713 E1.12303
G1 X110.315 Y91.872 E1.15348
G1 X110.523 Y91.958 E1.1692
G1 X110.707 Y92.037 E1.18319
G1 X111.074 Y92.207 E1.21144
G1 X111.616 Y92.478 E1.25376
G1 X112.101 Y92.745 E1.29243
G1 X112.563 Y93.024 E1.33013
G1 X113.024 Y93.328 E1.3687
G1 X113.485 Y93.659 E1.40834
G1 X113.886 Y93.97 E1.44378
G1 X114.261 Y94.283 E1.4779
G1 X114.618 Y94.602 E1.51134
G1 X115.006 Y94.974 E1.54888
G1 X115.358 Y95.337 E1.5842
G1 X115.67 Y95.683 E1.61674
G1 X116.016 Y96.099 E1.65453
G1 X116.387 Y96.581 E1.69702
G1 X116.706 Y97.03 E1.73549
G1 X117.017 Y97.508 E1.77532
G1 X117.178 Y97.768 E1.79668
G1 X117.293 Y97.963 E1.81249
G1 X117.418 Y98.185 E1.83029
G1 X117.516 Y98.366 E1.84466
G1 X117.646 Y98.617 E1.86441
G1 X117.818 Y98.968 E1.89171
G1 X118.017 Y99.413 E1.92575
G1 X118.224 Y99.923 E1.9642
G1 X118.398 Y100.401 E1.99973
G1 X118.515 Y100.763 E2.0263
G1 X118.568 Y100.936 E2.03894
G1 X118.634 Y101.16 E2.05525
G1 X118.748 Y101.597 E2.08679
G1 X118.887 Y102.214 E2.13097
G1 X118.99 Y102.782 E2.17129
G1 X119.056 Y103.255 E2.20465
G1 X119.086 Y103.497 E2.22168
G1 X119.107 Y103.699 E2.23586
G1 X119.143 Y104.3 E2.27792
G1 X119.158 Y105.174 E2.33897
G1 X119.138 Y105.834 E2.38509
G1 X119.103 Y106.283 E2.41655
G1 X119.054 Y106.723 E2.44747
G1 X118.962 Y107.369 E2.49304
G1 X118.853 Y107.956 E2.53475
G1 X118.77 Y108.315 E2.56048
G1 X118.715 Y108.536 E2.57639
G1 X118.632 Y108.848 E2.59894
G1 X118.499 Y109.29 E2.63118
G1 X118.342 Y109.754 E2.66539
G1 X118.251 Y110.006 E2.6841
G1 X118.175 Y110.205 E2.69898
G1 X118.048 Y110.515 E2.72238
G1 X117.931 Y110.782 E2.74274
G1 X117.759 Y111.145 E2.7708
G1 X117.498 Y111.658 E2.811
G1 X117.223 Y112.15 E2.85037
G1 X116.903 Y112.67 E2.89302
G1 X116.751 Y112.905 E2.91256
G1 X116.632 Y113.082 E2.92746
G1 X116.348 Y113.475 E2.96133
G1 X116 Y113.922 E3.0009
G1 X115.79 Y114.178 E3.02402
G1 X115.657 Y114.333 E3.03829
G1 X115.458 Y114.555 E3.05911
G1 X115.27 Y114.756 E3.07833
G1 X114.973 Y115.055 E3.10777
G1 X114.519 Y115.485 E3.15145
G1 X114.241 Y115.735 E3.17756
G1 X114.021 Y115.922 E3.19773
G1 X113.714 Y116.169 E3.22525
G1 X113.389 Y116.415 E3.25372
G1 X113.033 Y116.667 E3.28418
G1 X112.612 Y116.946 E3.31946
G1 X112.167 Y117.217 E3.35585
G1 X111.774 Y117.437 E3.38731
G1 X111.384 Y117.639 E3.41799
G1 X110.792 Y117.923 E3.46385
G1 X110.235 Y118.162 E3.50618
G1 X109.834 Y118.313 E3.53611
G1 X109.615 Y118.391 E3.55235
G1 X109.373 Y118.473 E3.57019
G1 X108.974 Y118.595 E3.59934
G1 X108.469 Y118.733 E3.6359
G1 X107.942 Y118.855 E3.67368
G1 X107.388 Y118.961 E3.71308
G1 X106.957 Y119.029 E3.74356
G1 X106.713 Y119.06 E3.76074
G1 X106.49 Y119.085 E3.77641
G1 X106.13 Y119.119 E3.80167
G1 X105.708 Y119.146 E3.8312
G1 X105.198 Y119.163 E3.86684
G1 X104.733 Y119.163 E3.89932
G1 X104.435 Y119.153 E3.92015
G1 X104.221 Y119.143 E3.93511
G1 X103.926 Y119.124 E3.95576
G1 X103.52 Y119.086 E3.98424
G1 X103.099 Y119.034 E4.01387
G1 X102.898 Y119.006 E4.02804
G1 X102.65 Y118.968 E4.04557
G1 X102.365 Y118.918 E4.06578
G1 X102.166 Y118.879 E4.07994
G1 X101.898 Y118.821 E4.09909
G1 X101.544 Y118.737 E4.12451
G1 X101.239 Y118.657 E4.14653
G1 X100.987 Y118.585 E4.16484
G1 X100.764 Y118.518 E4.1811
G1 X100.494 Y118.431 E4.20091
G1 X100.091 Y118.287 E4.2308
G1 X99.685 Y118.128 E4.26126
G1 X99.477 Y118.042 E4.27698
G1 X99.293 Y117.963 E4.29096
G1 X98.926 Y117.793 E4.31921
G1 X98.384 Y117.522 E4.36154
G1 X97.901 Y117.256 E4.40005
G1 X97.432 Y116.973 E4.43831
G1 X96.96 Y116.662 E4.47779
G1 X96.506 Y116.335 E4.51687
G1 X96.11 Y116.027 E4.55191
G1 X95.732 Y115.711 E4.58633
G1 X95.38 Y115.396 E4.61932
G1 X94.995 Y115.027 E4.65657
G1 X94.643 Y114.664 E4.69188
G1 X94.33 Y114.317 E4.72452
G1 X93.981 Y113.899 E4.76256
G1 X93.611 Y113.418 E4.80494
G1 X93.294 Y112.97 E4.84328
G1 X92.983 Y112.492 E4.88311
G1 X92.828 Y112.242 E4.90365
G1 X92.709 Y112.041 E4.91997
G1 X92.568 Y111.791 E4.94001
G1 X92.468 Y111.605 E4.95476
G1 X92.344 Y111.363 E4.97376
G1 X92.178 Y111.023 E5.00018
G1 X91.984 Y110.588 E5.03345
G1 X91.774 Y110.071 E5.07243
G1 X91.595 Y109.58 E5.10893
G1 X91.481 Y109.225 E5.13497
G1 X91.427 Y109.048 E5.1479
G1 X91.361 Y108.822 E5.16434
G1 X91.251 Y108.395 E5.19514
G1 X91.113 Y107.78 E5.23916
G1 X91.013 Y107.232 E5.27807
G1 X90.946 Y106.759 E5.31144
G1 X90.914 Y106.503 E5.32946
G1 X90.893 Y106.301 E5.34364
G1 X90.857 Y105.7 E5.3857
G1 X90.842 Y104.826 E5.44675
G1 X90.862 Y104.163 E5.49308
G1 X90.898 Y103.704 E5.52524
G1 X90.947 Y103.262 E5.5563
G1 X91.038 Y102.626 E5.60117
G1 X91.145 Y102.051 E5.64202
G1 X91.229 Y101.686 E5.66819
G1 X91.29 Y101.443 E5.68568
G1 X91.374 Y101.13 E5.70832
G1 X91.504 Y100.7 E5.7397
G1 X91.666 Y100.222 E5.77495
G1 X91.836 Y99.772 E5.80855
G1 X92.022 Y99.327 E5.84223
G1 X92.245 Y98.847 E5.8792
G1 X92.517 Y98.314 E5.921
G1 X92.792 Y97.824 E5.96024
G1 X93.101 Y97.323 E6.00136
G1 X93.267 Y97.067 E6.02267
G1 X93.394 Y96.88 E6.03846
G1 X93.659 Y96.516 E6.0699
G1 X93.999 Y96.079 E6.10858
G1 X94.225 Y95.804 E6.13344
G1 X94.358 Y95.65 E6.14765
G1 X94.542 Y95.445 E6.16689
G1 X94.73 Y95.244 E6.18612
G1 X95.027 Y94.945 E6.21555
M204 S3000
M205 X10 Y10
G0 F3000 X95.412 Y95.352
M204 S1800
M205 X8 Y8
G1 F2400 X95.867 Y94.921 E6.25933
G1 X96.125 Y94.689 E6.28356
G1 X96.344 Y94.503 E6.30363
G1 X96.617 Y94.284 E6.32807
G1 X96.941 Y94.038 E6.35649
G1 X97.287 Y93.792 E6.38614
G1 X97.71 Y93.513 E6.42153
G1 X98.102 Y93.275 E6.45356
G1 X98.494 Y93.055 E6.48496
G1 X98.858 Y92.866 E6.51361
G1 X99.45 Y92.582 E6.55947
G1 X99.963 Y92.363 E6.59843
G1 X100.364 Y92.212 E6.62836
G1 X100.565 Y92.14 E6.64327
G1 X100.807 Y92.058 E6.66112
G1 X101.174 Y91.945 E6.68794
G1 X101.679 Y91.807 E6.7245
G1 X102.163 Y91.695 E6.7592
G1 X102.717 Y91.589 E6.7986
G1 X103.113 Y91.526 E6.82661
G1 X103.357 Y91.495 E6.84379
G1 X103.562 Y91.472 E6.85819
G1 X103.922 Y91.438 E6.88345
G1 X104.318 Y91.413 E6.91116
G1 X104.846 Y91.396 E6.94806
G1 X105.28 Y91.397 E6.97838
G1 X105.56 Y91.407 E6.99794
G1 X105.743 Y91.416 E7.01074
G1 X106.038 Y91.435 E7.03139
G1 X106.412 Y91.47 E7.05763
G1 X106.833 Y91.522 E7.08726
G1 X107.017 Y91.548 E7.10023
G1 X107.265 Y91.586 E7.11776
G1 X107.527 Y91.631 E7.13633
G1 X107.726 Y91.67 E7.15049
G1 X107.973 Y91.724 E7.16815
G1 X108.327 Y91.808 E7.19356
G1 X108.607 Y91.881 E7.21377
G1 X108.859 Y91.953 E7.23208
G1 X109.064 Y92.015 E7.24704
G1 X109.334 Y92.102 E7.26685
G1 X109.705 Y92.235 E7.29438
G1 X110.111 Y92.394 E7.32483
G1 X110.302 Y92.472 E7.33924
G1 X110.486 Y92.551 E7.35323
G1 X110.823 Y92.708 E7.3792
G1 X111.365 Y92.979 E7.42152
G1 X111.811 Y93.224 E7.45706
G1 X112.273 Y93.503 E7.49476
G1 X112.698 Y93.783 E7.53031
G1 X113.159 Y94.114 E7.56995
G1 X113.527 Y94.4 E7.6025
G1 X113.902 Y94.713 E7.63662
G1 X114.23 Y95.006 E7.66734
G1 X114.618 Y95.378 E7.70488
G1 X114.942 Y95.712 E7.73738
G1 X115.254 Y96.058 E7.76992
G1 X115.573 Y96.44 E7.80468
G1 X115.944 Y96.922 E7.84717
G1 X116.237 Y97.336 E7.88259
G1 X116.548 Y97.814 E7.92242
G1 X116.696 Y98.053 E7.94206
G1 X116.811 Y98.248 E7.95787
G1 X116.926 Y98.452 E7.97423
G1 X117.024 Y98.633 E7.9886
G1 X117.143 Y98.864 E8.00675
G1 X117.315 Y99.215 E8.03406
G1 X117.498 Y99.624 E8.06535
G1 X117.705 Y100.134 E8.1038
G1 X117.865 Y100.573 E8.13643
G1 X117.982 Y100.935 E8.163
G1 X118.031 Y101.094 E8.17462
G1 X118.097 Y101.318 E8.19094
G1 X118.202 Y101.72 E8.21996
G1 X118.341 Y102.337 E8.26413
G1 X118.436 Y102.86 E8.30126
G1 X118.502 Y103.333 E8.33462
G1 X118.529 Y103.555 E8.35024
G1 X118.55 Y103.757 E8.36442
G1 X118.583 Y104.309 E8.40304
G1 X118.598 Y105.183 E8.4641
G1 X118.58 Y105.79 E8.50651
G1 X118.545 Y106.239 E8.53797
G1 X118.5 Y106.644 E8.56643
G1 X118.408 Y107.29 E8.61201
G1 X118.308 Y107.83 E8.65037
G1 X118.225 Y108.189 E8.6761
G1 X118.174 Y108.392 E8.69072
G1 X118.091 Y108.704 E8.71327
G1 X117.968 Y109.11 E8.7429
G1 X117.811 Y109.574 E8.77712
G1 X117.728 Y109.806 E8.79433
G1 X117.652 Y110.005 E8.8092
G1 X117.535 Y110.291 E8.83079
G1 X117.418 Y110.558 E8.85115
G1 X117.26 Y110.891 E8.87689
G1 X116.999 Y111.404 E8.91709
G1 X116.746 Y111.856 E8.95327
G1 X116.426 Y112.376 E8.99592
G1 X116.286 Y112.593 E9.01396
G1 X116.167 Y112.77 E9.02886
G1 X115.906 Y113.131 E9.05997
G1 X115.558 Y113.578 E9.09954
G1 X115.365 Y113.814 E9.12083
G1 X115.232 Y113.969 E9.1351
G1 X115.049 Y114.173 E9.15424
G1 X114.861 Y114.374 E9.17346
G1 X114.588 Y114.649 E9.20053
G1 X114.134 Y115.079 E9.2442
G1 X113.878 Y115.308 E9.26819
G1 X113.658 Y115.495 E9.28836
G1 X113.376 Y115.722 E9.31364
G1 X113.051 Y115.968 E9.34211
G1 X112.723 Y116.2 E9.37018
G1 X112.302 Y116.479 E9.40545
G1 X111.893 Y116.729 E9.43893
G1 X111.5 Y116.949 E9.47039
G1 X111.142 Y117.134 E9.49854
G1 X110.55 Y117.418 E9.5444
G1 X110.037 Y117.637 E9.58336
G1 X109.636 Y117.788 E9.61329
G1 X109.435 Y117.86 E9.6282
G1 X109.193 Y117.942 E9.64605
G1 X108.826 Y118.055 E9.67287
G1 X108.321 Y118.193 E9.70943
G1 X107.837 Y118.305 E9.74413
G1 X107.283 Y118.411 E9.78353
G1 X106.887 Y118.474 E9.81153
G1 X106.643 Y118.505 E9.82871
G1 X106.438 Y118.528 E9.84312
G1 X106.078 Y118.562 E9.86838
G1 X105.689 Y118.586 E9.8956
G1 X105.179 Y118.603 E9.93124
G1 X104.751 Y118.603 E9.96114
G1 X104.453 Y118.593 E9.98196
G1 X104.257 Y118.584 E9.99567
G1 X103.962 Y118.565 E10.01631
G1 X103.588 Y118.53 E10.04255
G1 X103.167 Y118.478 E10.07218
G1 X102.983 Y118.452 E10.08516
G1 X102.735 Y118.414 E10.10268
G1 X102.473 Y118.369 E10.12125
G1 X102.274 Y118.33 E10.13541
G1 X102.027 Y118.276 E10.15307
G1 X101.673 Y118.192 E10.17849
G1 X101.393 Y118.119 E10.1987
G1 X101.141 Y118.047 E10.217
G1 X100.936 Y117.985 E10.23196
G1 X100.666 Y117.898 E10.25177
G1 X100.295 Y117.765 E10.2793
G1 X99.889 Y117.606 E10.30976
G1 X99.698 Y117.528 E10.32417
G1 X99.514 Y117.449 E10.33815
G1 X99.177 Y117.292 E10.36412
G1 X98.635 Y117.021 E10.40645
G1 X98.19 Y116.777 E10.44189
G1 X97.721 Y116.494 E10.48015
G1 X97.288 Y116.207 E10.51644
G1 X96.834 Y115.88 E10.55552
G1 X96.469 Y115.597 E10.58777
G1 X96.091 Y115.281 E10.62219
G1 X95.768 Y114.991 E10.65251
G1 X95.383 Y114.622 E10.68975
G1 X95.059 Y114.289 E10.72221
G1 X94.746 Y113.942 E10.75485
G1 X94.425 Y113.557 E10.78986
G1 X94.055 Y113.076 E10.83224
G1 X93.763 Y112.664 E10.86751
G1 X93.452 Y112.186 E10.90734
G1 X93.31 Y111.956 E10.92622
G1 X93.191 Y111.755 E10.94254
G1 X93.061 Y111.526 E10.96093
G1 X92.961 Y111.34 E10.97568
G1 X92.847 Y111.117 E10.99317
G1 X92.681 Y110.777 E11.0196
G1 X92.502 Y110.378 E11.05015
G1 X92.292 Y109.861 E11.08912
G1 X92.128 Y109.409 E11.12271
G1 X92.014 Y109.054 E11.14875
G1 X91.965 Y108.891 E11.16064
G1 X91.899 Y108.665 E11.17708
G1 X91.797 Y108.272 E11.20544
G1 X91.659 Y107.657 E11.24946
G1 X91.567 Y107.154 E11.28518
G1 X91.5 Y106.681 E11.31855
G1 X91.471 Y106.445 E11.33515
G1 X91.45 Y106.243 E11.34934
G1 X91.417 Y105.691 E11.38796
G1 X91.402 Y104.817 E11.44902
G1 X91.421 Y104.207 E11.49165
G1 X91.457 Y103.748 E11.5238
G1 X91.502 Y103.342 E11.55233
G1 X91.593 Y102.706 E11.59721
G1 X91.691 Y102.177 E11.63479
G1 X91.775 Y101.812 E11.66095
G1 X91.831 Y101.588 E11.67707
G1 X91.915 Y101.275 E11.69971
G1 X92.035 Y100.88 E11.72854
G1 X92.197 Y100.402 E11.7638
G1 X92.353 Y99.988 E11.7947
G1 X92.539 Y99.543 E11.82838
G1 X92.743 Y99.102 E11.86232
G1 X93.015 Y98.569 E11.90412
G1 X93.269 Y98.118 E11.94027
G1 X93.578 Y97.617 E11.98138
G1 X93.731 Y97.381 E12.00103
G1 X93.858 Y97.194 E12.01682
G1 X94.101 Y96.86 E12.04567
G1 X94.441 Y96.423 E12.08434
G1 X94.648 Y96.17 E12.10717
G1 X94.781 Y96.016 E12.12138
G1 X94.951 Y95.827 E12.13914
G1 X95.139 Y95.626 E12.15836
G1 X95.412 Y95.352 E12.18538
M204 S3000
M205 X10 Y10
G0 F3000 X95.797 Y95.758
M204 S1800
M205 X8 Y8
G1 F2400 X96.252 Y95.327 E12.22915
G1 X96.488 Y95.116 E12.25126
G1 X96.707 Y94.93 E12.27133
G1 X96.955 Y94.73 E12.29359
G1 X97.279 Y94.484 E12.322
G1 X97.596 Y94.26 E12.34911
G1 X98.019 Y93.981 E12.3845
G1 X98.376 Y93.763 E12.41372
G1 X98.768 Y93.543 E12.44512
G1 X99.1 Y93.371 E12.47123
G1 X99.692 Y93.087 E12.51709
G1 X100.16 Y92.887 E12.55264
G1 X100.561 Y92.736 E12.58257
G1 X100.745 Y92.67 E12.59622
G1 X100.987 Y92.588 E12.61407
G1 X101.322 Y92.486 E12.63853
G1 X101.827 Y92.348 E12.6751
G1 X102.269 Y92.245 E12.7068
G1 X102.823 Y92.139 E12.74619
G1 X103.184 Y92.082 E12.77172
G1 X103.428 Y92.051 E12.7889
G1 X103.615 Y92.03 E12.80204
G1 X103.975 Y91.996 E12.8273
G1 X104.336 Y91.973 E12.85256
G1 X104.864 Y91.956 E12.88946
G1 X105.26 Y91.957 E12.91712
G1 X105.54 Y91.967 E12.93669
G1 X105.707 Y91.975 E12.94837
G1 X106.002 Y91.994 E12.96902
G1 X106.343 Y92.026 E12.99294
G1 X106.764 Y92.078 E13.02257
G1 X106.933 Y92.101 E13.03448
G1 X107.181 Y92.139 E13.052
G1 X107.419 Y92.181 E13.06888
G1 X107.618 Y92.22 E13.08305
G1 X107.843 Y92.269 E13.09913
G1 X108.197 Y92.353 E13.12454
G1 X108.453 Y92.42 E13.14303
G1 X108.705 Y92.492 E13.16133
G1 X108.892 Y92.548 E13.17497
G1 X109.162 Y92.635 E13.19478
G1 X109.501 Y92.756 E13.21992
G1 X109.907 Y92.915 E13.25038
G1 X110.081 Y92.987 E13.26353
G1 X110.265 Y93.066 E13.27751
G1 X110.573 Y93.209 E13.30123
G1 X111.115 Y93.48 E13.34356
G1 X111.522 Y93.704 E13.37601
G1 X111.984 Y93.983 E13.4137
G1 X112.371 Y94.238 E13.44607
G1 X112.832 Y94.569 E13.48571
G1 X113.168 Y94.83 E13.51543
G1 X113.543 Y95.143 E13.54955
G1 X113.843 Y95.41 E13.5776
G1 X114.231 Y95.782 E13.61514
G1 X114.526 Y96.087 E13.64478
G1 X114.838 Y96.433 E13.67732
G1 X115.129 Y96.782 E13.70906
G1 X115.5 Y97.264 E13.75154
G1 X115.767 Y97.641 E13.78381
G1 X116.078 Y98.119 E13.82364
G1 X116.213 Y98.337 E13.84155
G1 X116.328 Y98.532 E13.85736
G1 X116.434 Y98.718 E13.87231
G1 X116.532 Y98.899 E13.88669
G1 X116.64 Y99.11 E13.90325
G1 X116.812 Y99.461 E13.93055
G1 X116.979 Y99.835 E13.95916
