;FLAVOR:Marlin
;TIME:1060
;Filament used: 1.50987m
;Layer height: 0.3
;MINX:89.286
;MINY:83.3
;MINZ:0.3
;MAXX:117.612
;MAXY:111.626
;MAXZ:15.9
;Generated with Cura_SteamEngine 4.3.0
M140 S60
M105
M190 S60
M104 S200
M105
M109 S200
M82 ;absolute extrusion mode
G21 ;metric values
G90 ;absolute positioning
M82 ;set extruder to absolute mode
M107 ;start with the fan off
G28 X0 Y0 ;move X/Y to min endstops
G28 Z0 ;move Z to min endstops
G1 Z15.0 F100 ;move the platform down 15mm
G92 E0 ;zero the extruded length
G1 F200 E3 ;extrude 3mm of feed stock
G92 E0 ;zero the extruded length again
G1 F100
M117 Printing...
G5
G92 E0
G92 E0
G1 F2400 E-6
;LAYER_COUNT:53
;LAYER:0
M106 S255
M204 S3000
M205 X10 Y10
G1 F600 Z0.375
G0 F3000 X93.127 Y87.765 Z0.375
M204 S1800
M205 X8 Y8
;TYPE:SKIRT
G1 F600 Z0.3
G1 F2400 E0
G1 X93.489 Y87.396 E0.0361
G1 X93.885 Y87.02 E0.07425
G1 X94.139 Y86.79 E0.09818
G1 X94.382 Y86.581 E0.12057
G1 X94.71 Y86.315 E0.15006
G1 X95.051 Y86.056 E0.17997
G1 X95.423 Y85.793 E0.21179
G1 X95.839 Y85.518 E0.24662
G1 X96.276 Y85.252 E0.28236
G1 X96.692 Y85.019 E0.31566
G1 X97.085 Y84.814 E0.34662
G1 X97.638 Y84.549 E0.38945
G1 X98.133 Y84.335 E0.42712
G1 X98.505 Y84.191 E0.45498
G1 X98.767 Y84.096 E0.47444
G1 X99.08 Y83.989 E0.49755
G1 X99.527 Y83.853 E0.53018
G1 X100.019 Y83.721 E0.56576
G1 X100.511 Y83.608 E0.60102
G1 X101.037 Y83.507 E0.63843
G1 X101.515 Y83.432 E0.67223
G1 X101.863 Y83.39 E0.69671
G1 X102.047 Y83.37 E0.70964
G1 X102.324 Y83.344 E0.72907
G1 X102.742 Y83.318 E0.75832
G1 X103.251 Y83.301 E0.79389
G1 X103.691 Y83.3 E0.82462
G1 X103.958 Y83.308 E0.84328
G1 X104.214 Y83.321 E0.86119
G1 X104.558 Y83.344 E0.88527
G1 X104.938 Y83.379 E0.91192
G1 X105.331 Y83.427 E0.93957
G1 X105.525 Y83.454 E0.95325
G1 X105.777 Y83.492 E0.97105
G1 X106.151 Y83.559 E0.99759
G1 X106.373 Y83.605 E1.01343
G1 X106.58 Y83.651 E1.02824
G1 X106.948 Y83.739 E1.05467
G1 X107.325 Y83.84 E1.08193
G1 X107.766 Y83.972 E1.11408
G1 X108.312 Y84.161 E1.15444
G1 X108.832 Y84.365 E1.19345
G1 X109.133 Y84.491 E1.21624
G1 X109.428 Y84.623 E1.23882
G1 X109.798 Y84.802 E1.26752
G1 X110.165 Y84.993 E1.29642
G1 X110.548 Y85.208 E1.3271
G1 X111.027 Y85.497 E1.36617
G1 X111.503 Y85.811 E1.406
G1 X111.948 Y86.132 E1.44433
G1 X112.336 Y86.434 E1.47867
G1 X112.711 Y86.747 E1.51279
G1 X113.063 Y87.061 E1.54573
G1 X113.411 Y87.394 E1.57937
G1 X113.611 Y87.594 E1.59913
G1 X113.769 Y87.758 E1.61504
G1 X113.998 Y88.007 E1.63866
G1 X114.178 Y88.213 E1.65777
G1 X114.447 Y88.541 E1.6874
G1 X114.849 Y89.062 E1.73336
G1 X115.183 Y89.534 E1.77375
G1 X115.467 Y89.973 E1.81027
G1 X115.619 Y90.219 E1.83047
G1 X115.751 Y90.443 E1.84863
G1 X115.966 Y90.836 E1.87992
G1 X116.228 Y91.354 E1.92046
G1 X116.466 Y91.877 E1.9606
G1 X116.673 Y92.387 E1.99904
G1 X116.847 Y92.865 E2.03457
G1 X116.964 Y93.227 E2.06114
G1 X117.017 Y93.4 E2.07378
G1 X117.083 Y93.624 E2.09009
G1 X117.192 Y94.038 E2.11999
G1 X117.325 Y94.619 E2.16162
G1 X117.408 Y95.047 E2.19207
G1 X117.446 Y95.279 E2.20849
G1 X117.483 Y95.532 E2.22635
G1 X117.518 Y95.809 E2.24585
G1 X117.539 Y95.992 E2.25872
G1 X117.56 Y96.203 E2.27353
G1 X117.584 Y96.522 E2.29587
G1 X117.602 Y96.86 E2.31952
G1 X117.612 Y97.256 E2.34718
G1 X117.61 Y97.79 E2.38448
G1 X117.589 Y98.306 E2.42055
G1 X117.56 Y98.677 E2.44654
G1 X117.51 Y99.126 E2.4781
G1 X117.399 Y99.898 E2.53257
G1 X117.29 Y100.482 E2.57407
G1 X117.231 Y100.736 E2.59228
G1 X117.18 Y100.938 E2.60683
G1 X117.086 Y101.294 E2.63255
G1 X116.862 Y101.992 E2.68375
G1 X116.493 Y102.962 E2.75624
G1 X116.189 Y103.647 E2.80859
G1 X115.948 Y104.12 E2.84566
G1 X115.671 Y104.614 E2.88522
G1 X115.328 Y105.17 E2.93085
G1 X115.131 Y105.471 E2.95598
G1 X114.968 Y105.707 E2.97601
G1 X114.7 Y106.07 E3.00753
G1 X114.416 Y106.429 E3.0395
G1 X114.227 Y106.658 E3.06024
G1 X114.095 Y106.811 E3.07435
G1 X113.909 Y107.017 E3.09374
G1 X113.708 Y107.232 E3.11429
G1 X113.405 Y107.537 E3.14432
G1 X112.986 Y107.933 E3.18459
G1 X112.706 Y108.183 E3.21081
G1 X112.456 Y108.395 E3.2337
G1 X112.176 Y108.621 E3.25884
G1 X111.864 Y108.859 E3.28625
G1 X111.566 Y109.074 E3.31191
G1 X111.333 Y109.233 E3.33161
G1 X111.166 Y109.343 E3.34558
G1 X110.971 Y109.468 E3.36176
G1 X110.603 Y109.689 E3.39174
G1 X110.21 Y109.908 E3.42316
G1 X109.836 Y110.101 E3.45256
G1 X109.272 Y110.372 E3.49627
G1 X108.758 Y110.595 E3.5354
G1 X108.35 Y110.752 E3.56593
G1 X108.096 Y110.844 E3.5848
G1 X107.832 Y110.934 E3.60428
G1 X107.404 Y111.064 E3.63553
G1 X106.894 Y111.202 E3.67243
G1 X106.405 Y111.316 E3.7075
G1 X105.891 Y111.416 E3.74407
G1 X105.392 Y111.494 E3.77935
G1 X105.034 Y111.537 E3.80454
G1 X104.85 Y111.557 E3.81746
G1 X104.571 Y111.583 E3.83703
G1 X104.193 Y111.608 E3.86349
G1 X103.726 Y111.626 E3.89614
G1 X103.194 Y111.626 E3.93329
G1 X102.772 Y111.61 E3.96279
G1 X102.573 Y111.6 E3.97671
G1 X102.333 Y111.584 E3.99351
G1 X101.959 Y111.548 E4.01975
G1 X101.604 Y111.505 E4.04473
G1 X101.392 Y111.476 E4.05967
G1 X101.11 Y111.433 E4.0796
G1 X100.746 Y111.368 E4.10542
G1 X100.5 Y111.317 E4.12297
G1 X100.281 Y111.268 E4.13865
G1 X99.937 Y111.185 E4.16336
G1 X99.55 Y111.08 E4.19137
G1 X99.075 Y110.936 E4.22604
G1 X98.551 Y110.754 E4.26478
G1 X98.1 Y110.577 E4.29862
G1 X97.816 Y110.458 E4.32013
G1 X97.483 Y110.31 E4.34558
G1 X97.105 Y110.128 E4.37489
G1 X96.758 Y109.948 E4.40219
G1 X96.36 Y109.725 E4.43405
G1 X95.856 Y109.42 E4.4752
G1 X95.383 Y109.107 E4.51482
G1 X94.947 Y108.792 E4.55239
G1 X94.559 Y108.49 E4.58673
G1 X94.181 Y108.174 E4.62114
G1 X93.829 Y107.859 E4.65413
G1 X93.444 Y107.49 E4.69138
G1 X93.092 Y107.127 E4.7267
G1 X92.779 Y106.78 E4.75934
G1 X92.426 Y106.357 E4.79782
G1 X92.059 Y105.879 E4.83991
G1 X91.747 Y105.437 E4.8777
G1 X91.432 Y104.953 E4.91803
G1 X91.264 Y104.681 E4.94036
G1 X91.143 Y104.475 E4.95705
G1 X90.936 Y104.097 E4.98715
G1 X90.677 Y103.586 E5.02717
G1 X90.479 Y103.159 E5.06004
G1 X90.372 Y102.907 E5.07916
G1 X90.302 Y102.737 E5.092
G1 X90.202 Y102.483 E5.11107
G1 X90.055 Y102.074 E5.14143
G1 X89.927 Y101.678 E5.17049
G1 X89.867 Y101.479 E5.18501
G1 X89.808 Y101.276 E5.19978
G1 X89.706 Y100.887 E5.22787
G1 X89.573 Y100.306 E5.2695
G1 X89.487 Y99.865 E5.30088
G1 X89.453 Y99.655 E5.31574
G1 X89.42 Y99.427 E5.33183
G1 X89.377 Y99.091 E5.35549
G1 X89.336 Y98.665 E5.38538
G1 X89.301 Y98.134 E5.42255
G1 X89.286 Y97.636 E5.45735
G1 X89.289 Y97.12 E5.49339
G1 X89.309 Y96.628 E5.52778
G1 X89.336 Y96.276 E5.55244
G1 X89.387 Y95.816 E5.58477
G1 X89.501 Y95.024 E5.64066
G1 X89.609 Y94.447 E5.68166
G1 X89.668 Y94.192 E5.69994
G1 X89.723 Y93.971 E5.71584
G1 X89.818 Y93.614 E5.74165
G1 X90.036 Y92.937 E5.79132
G1 X90.392 Y91.998 E5.86147
G1 X90.698 Y91.307 E5.91425
G1 X90.973 Y90.767 E5.95658
G1 X91.249 Y90.275 E5.99598
G1 X91.544 Y89.796 E6.03527
G1 X91.71 Y89.539 E6.05664
G1 X91.826 Y89.368 E6.07107
G1 X92.043 Y89.066 E6.09705
G1 X92.245 Y88.8 E6.12038
G1 X92.361 Y88.651 E6.13357
G1 X92.52 Y88.453 E6.1513
G1 X92.793 Y88.133 E6.18068
G1 X93.127 Y87.765 E6.21539
M204 S3000
M205 X10 Y10
G0 F3000 X93.542 Y88.142
M204 S1800
M205 X8 Y8
G1 F2400 X93.874 Y87.802 E6.24858
G1 X94.27 Y87.426 E6.28673
G1 X94.504 Y87.215 E6.30873
G1 X94.747 Y87.006 E6.33112
G1 X95.049 Y86.761 E6.35828
G1 X95.39 Y86.502 E6.38819
G1 X95.732 Y86.26 E6.41745
G1 X96.148 Y85.985 E6.45228
G1 X96.55 Y85.74 E6.48517
G1 X96.966 Y85.507 E6.51847
G1 X97.327 Y85.319 E6.5469
G1 X97.88 Y85.054 E6.58973
G1 X98.336 Y84.858 E6.6244
G1 X98.708 Y84.714 E6.65226
G1 X98.948 Y84.626 E6.67011
G1 X99.261 Y84.519 E6.69322
G1 X99.673 Y84.394 E6.72329
G1 X100.165 Y84.262 E6.75887
G1 X100.616 Y84.158 E6.7912
G1 X101.142 Y84.057 E6.82861
G1 X101.582 Y83.988 E6.85971
G1 X101.93 Y83.946 E6.8842
G1 X102.099 Y83.928 E6.89607
G1 X102.376 Y83.902 E6.9155
G1 X102.76 Y83.878 E6.94237
G1 X103.269 Y83.861 E6.97794
G1 X103.675 Y83.86 E7.0063
G1 X103.942 Y83.868 E7.02496
G1 X104.177 Y83.879 E7.04139
G1 X104.521 Y83.902 E7.06547
G1 X104.87 Y83.935 E7.08996
G1 X105.263 Y83.983 E7.11761
G1 X105.441 Y84.008 E7.13017
G1 X105.693 Y84.046 E7.14797
G1 X106.038 Y84.107 E7.17244
G1 X106.26 Y84.153 E7.18827
G1 X106.449 Y84.195 E7.20179
G1 X106.817 Y84.283 E7.22822
G1 X107.164 Y84.377 E7.25333
G1 X107.605 Y84.509 E7.28549
G1 X108.107 Y84.682 E7.32257
G1 X108.627 Y84.886 E7.36159
G1 X108.904 Y85.002 E7.38256
G1 X109.199 Y85.134 E7.40514
G1 X109.54 Y85.299 E7.4316
G1 X109.907 Y85.49 E7.46049
G1 X110.258 Y85.687 E7.48861
G1 X110.737 Y85.976 E7.52768
G1 X111.175 Y86.266 E7.56437
G1 X111.62 Y86.587 E7.60269
G1 X111.977 Y86.864 E7.63426
G1 X112.352 Y87.177 E7.66837
G1 X112.676 Y87.466 E7.6987
G1 X113.024 Y87.799 E7.73234
G1 X113.208 Y87.983 E7.75051
G1 X113.366 Y88.147 E7.76642
G1 X113.576 Y88.376 E7.78812
G1 X113.756 Y88.582 E7.80723
G1 X114.004 Y88.883 E7.83447
G1 X114.406 Y89.404 E7.88043
G1 X114.713 Y89.838 E7.91756
G1 X114.997 Y90.277 E7.95408
G1 X115.137 Y90.504 E7.97271
G1 X115.269 Y90.728 E7.99087
G1 X115.466 Y91.088 E8.01953
G1 X115.728 Y91.606 E8.06008
G1 X115.947 Y92.088 E8.09706
G1 X116.154 Y92.598 E8.1355
G1 X116.314 Y93.037 E8.16814
G1 X116.431 Y93.399 E8.19471
G1 X116.48 Y93.558 E8.20633
G1 X116.546 Y93.782 E8.22264
G1 X116.646 Y94.163 E8.25015
G1 X116.779 Y94.744 E8.29178
G1 X116.856 Y95.138 E8.31982
G1 X116.894 Y95.37 E8.33624
G1 X116.928 Y95.602 E8.35262
G1 X116.963 Y95.879 E8.37212
G1 X116.982 Y96.047 E8.38393
G1 X117.003 Y96.258 E8.39874
G1 X117.025 Y96.552 E8.41933
G1 X117.043 Y96.89 E8.44298
G1 X117.052 Y97.254 E8.46841
G1 X117.05 Y97.788 E8.50571
G1 X117.031 Y98.263 E8.53891
G1 X117.002 Y98.634 E8.5649
G1 X116.956 Y99.046 E8.59386
G1 X116.845 Y99.818 E8.64833
G1 X116.744 Y100.355 E8.6865
G1 X116.685 Y100.609 E8.70471
G1 X116.639 Y100.795 E8.71809
G1 X116.545 Y101.151 E8.74381
G1 X116.339 Y101.793 E8.7909
G1 X115.97 Y102.763 E8.86339
G1 X115.69 Y103.392 E8.91148
G1 X115.449 Y103.865 E8.94856
G1 X115.194 Y104.32 E8.98499
G1 X114.851 Y104.876 E9.03062
G1 X114.67 Y105.153 E9.05373
G1 X114.507 Y105.389 E9.07377
G1 X114.26 Y105.723 E9.10278
G1 X113.976 Y106.082 E9.13475
G1 X113.803 Y106.292 E9.15376
G1 X113.671 Y106.445 E9.16787
G1 X113.5 Y106.635 E9.18572
G1 X113.299 Y106.85 E9.20628
G1 X113.02 Y107.13 E9.23389
G1 X112.601 Y107.526 E9.27416
G1 X112.344 Y107.756 E9.29825
G1 X112.094 Y107.968 E9.32114
G1 X111.837 Y108.176 E9.34424
G1 X111.525 Y108.414 E9.37164
G1 X111.25 Y108.611 E9.39527
G1 X111.017 Y108.77 E9.41497
G1 X110.864 Y108.872 E9.42782
G1 X110.669 Y108.997 E9.444
G1 X110.33 Y109.2 E9.47159
G1 X109.937 Y109.419 E9.50302
G1 X109.594 Y109.597 E9.53001
G1 X109.03 Y109.868 E9.57371
G1 X108.556 Y110.072 E9.60976
G1 X108.148 Y110.229 E9.64029
G1 X107.915 Y110.314 E9.65761
G1 X107.651 Y110.404 E9.6771
G1 X107.258 Y110.524 E9.7058
G1 X106.748 Y110.662 E9.7427
G1 X106.298 Y110.766 E9.77496
G1 X105.784 Y110.866 E9.81153
G1 X105.325 Y110.938 E9.84398
G1 X104.967 Y110.981 E9.86917
G1 X104.798 Y110.999 E9.88104
G1 X104.519 Y111.025 E9.90061
G1 X104.171 Y111.048 E9.92497
G1 X103.704 Y111.066 E9.95761
G1 X103.216 Y111.066 E9.9917
G1 X102.794 Y111.05 E10.02119
G1 X102.61 Y111.041 E10.03406
G1 X102.37 Y111.025 E10.05086
G1 X102.026 Y110.993 E10.07499
G1 X101.671 Y110.95 E10.09997
G1 X101.476 Y110.923 E10.11372
G1 X101.194 Y110.88 E10.13364
G1 X100.86 Y110.82 E10.15735
G1 X100.614 Y110.769 E10.17489
G1 X100.412 Y110.723 E10.18936
G1 X100.068 Y110.64 E10.21408
G1 X99.712 Y110.544 E10.23983
G1 X99.237 Y110.4 E10.2745
G1 X98.756 Y110.233 E10.31007
G1 X98.305 Y110.056 E10.3439
G1 X98.044 Y109.946 E10.36369
G1 X97.711 Y109.798 E10.38914
G1 X97.363 Y109.631 E10.4161
G1 X97.016 Y109.451 E10.4434
G1 X96.649 Y109.245 E10.4728
G1 X96.145 Y108.94 E10.51395
G1 X95.711 Y108.653 E10.55029
G1 X95.275 Y108.338 E10.58786
G1 X94.918 Y108.06 E10.61946
G1 X94.54 Y107.744 E10.65387
G1 X94.217 Y107.454 E10.68419
G1 X93.832 Y107.085 E10.72144
G1 X93.508 Y106.752 E10.75389
G1 X93.195 Y106.405 E10.78653
G1 X92.871 Y106.016 E10.82189
G1 X92.504 Y105.538 E10.86398
G1 X92.216 Y105.131 E10.89881
G1 X91.901 Y104.647 E10.93914
G1 X91.747 Y104.397 E10.95965
G1 X91.626 Y104.191 E10.97634
G1 X91.435 Y103.843 E11.00407
G1 X91.176 Y103.332 E11.04408
G1 X90.994 Y102.94 E11.07427
G1 X90.887 Y102.688 E11.09339
G1 X90.823 Y102.532 E11.10517
G1 X90.723 Y102.278 E11.12423
G1 X90.588 Y101.901 E11.1522
G1 X90.46 Y101.505 E11.18127
G1 X90.404 Y101.323 E11.19457
G1 X90.345 Y101.12 E11.20934
G1 X90.252 Y100.762 E11.23517
G1 X90.119 Y100.181 E11.2768
G1 X90.04 Y99.776 E11.30562
G1 X90.006 Y99.566 E11.32048
G1 X89.976 Y99.355 E11.33537
G1 X89.933 Y99.019 E11.35903
G1 X89.895 Y98.628 E11.38646
G1 X89.86 Y98.097 E11.42363
G1 X89.846 Y97.639 E11.45564
G1 X89.849 Y97.123 E11.49168
G1 X89.868 Y96.671 E11.52328
G1 X89.895 Y96.319 E11.54794
G1 X89.941 Y95.896 E11.57766
G1 X90.055 Y95.104 E11.63354
G1 X90.155 Y94.573 E11.67128
G1 X90.214 Y94.318 E11.68957
G1 X90.264 Y94.115 E11.70417
G1 X90.359 Y93.758 E11.72997
G1 X90.56 Y93.135 E11.77569
G1 X90.916 Y92.196 E11.84583
G1 X91.197 Y91.561 E11.89434
G1 X91.472 Y91.021 E11.93666
G1 X91.726 Y90.569 E11.97288
G1 X92.021 Y90.09 E12.01217
G1 X92.174 Y89.853 E12.03187
G1 X92.29 Y89.682 E12.0463
G1 X92.489 Y89.404 E12.07018
G1 X92.691 Y89.138 E12.09351
G1 X92.798 Y89.002 E12.1056
G1 X92.957 Y88.804 E12.12334
G1 X93.208 Y88.51 E12.15034
G1 X93.542 Y88.142 E12.18505
M204 S3000
M205 X10 Y10
G0 F3000 X93.957 Y88.518
M204 S1800
M205 X8 Y8
G1 F2400 X94.26 Y88.208 E12.21532
G1 X94.656 Y87.832 E12.25347
G1 X94.869 Y87.639 E12.27354
G1 X95.112 Y87.43 E12.29593
G1 X95.388 Y87.207 E12.32071
G1 X95.729 Y86.948 E12.35062
G1 X96.04 Y86.727 E12.37727
G1 X96.456 Y86.452 E12.4121
G1 X96.823 Y86.229 E12.44209
G1 X97.239 Y85.996 E12.4754
G1 X97.569 Y85.824 E12.50139
G1 X98.122 Y85.559 E12.54422
G1 X98.538 Y85.38 E12.57585
G1 X98.91 Y85.236 E12.60371
G1 X99.129 Y85.156 E12.62
G1 X99.442 Y85.049 E12.6431
G1 X99.818 Y84.934 E12.67057
G1 X100.31 Y84.802 E12.70615
G1 X100.722 Y84.708 E12.73566
G1 X101.248 Y84.607 E12.77307
G1 X101.649 Y84.544 E12.80142
G1 X101.997 Y84.502 E12.82591
G1 X102.151 Y84.486 E12.83672
G1 X102.428 Y84.46 E12.85615
G1 X102.779 Y84.437 E12.88072
G1 X103.288 Y84.42 E12.91629
G1 X103.658 Y84.42 E12.94214
G1 X103.925 Y84.428 E12.96079
G1 X104.14 Y84.438 E12.97583
G1 X104.484 Y84.461 E12.99991
G1 X104.802 Y84.491 E13.02222
G1 X105.195 Y84.539 E13.04987
G1 X105.358 Y84.561 E13.06136
G1 X105.61 Y84.599 E13.07916
G1 X105.924 Y84.655 E13.10144
G1 X106.146 Y84.701 E13.11727
G1 X106.319 Y84.74 E13.12966
G1 X106.687 Y84.828 E13.15609
G1 X107.004 Y84.913 E13.17901
G1 X107.445 Y85.045 E13.21116
G1 X107.903 Y85.203 E13.245
G1 X108.423 Y85.407 E13.28402
G1 X108.675 Y85.513 E13.30311
G1 X108.97 Y85.645 E13.32569
G1 X109.281 Y85.796 E13.34983
G1 X109.648 Y85.987 E13.37873
G1 X109.969 Y86.167 E13.40444
G1 X110.448 Y86.456 E13.44351
G1 X110.848 Y86.72 E13.47699
G1 X111.293 Y87.041 E13.51531
G1 X111.618 Y87.294 E13.54408
G1 X111.993 Y87.607 E13.57819
G1 X112.289 Y87.871 E13.6059
G1 X112.637 Y88.204 E13.63954
G1 X112.805 Y88.371 E13.65608
G1 X112.963 Y88.535 E13.67199
G1 X113.155 Y88.744 E13.69181
G1 X113.335 Y88.95 E13.71092
G1 X113.561 Y89.225 E13.73578
G1 X113.963 Y89.746 E13.78175
G1 X114.242 Y90.142 E13.81558
G1 X114.526 Y90.581 E13.8521
G1 X114.654 Y90.788 E13.8691
G1 X114.786 Y91.012 E13.88726
G1 X114.966 Y91.341 E13.91345
G1 X115.228 Y91.859 E13.954
G1 X115.428 Y92.299 E13.98776
G1 X115.635 Y92.809 E14.0262
G1 X115.781 Y93.209 E14.05594
G1 X115.898 Y93.571 E14.08251
G1 X115.943 Y93.716 E14.09312
G1 X116.009 Y93.94 E14.10943
G1 X116.1 Y94.288 E14.13455
G1 X116.233 Y94.869 E14.17618
G1 X116.303 Y95.228 E14.20173
G1 X116.341 Y95.46 E14.21815
